X:1
T:Title
%%score { ( 1 3 ) | ( 2 4 ) }
L:1/8
M:4/4
K:Eb
V:1 treble nm="Grand Piano"
V:3 treble 
V:2 bass 
V:4 bass 
V:1
 z4 z2[Q:1/4=100] E2 | E2 E2 F2 D2 | E6 B2 | B2 E2 A2 G2 | [DF]6 [DF]2 | G2 G2 A2 F2 | B6 e2 | %7
 d2 c2 B2 z E | [DB]6 [DB]2 | z4 G4 | [CA]6 [CA]2 | [DA]4 [DF]4 | [EG]6 [DB]2 | [EB]4 z4 | %14
 [G,E]3 [B,DF] [B,EG]2 [CEA]2 | z4 [DF]4 |[M:3/4] [G,E]6 |] %17
V:2
 z4 z2 [E,G,B,]2 | [E,A,C]2 [E,G,B,]2 [D,F,C]2 [B,,A,B,]2 | [E,G,B,]6 [D,F,B,]2 | %3
 [E,G,B,]2 [G,B,]2 [F,B,D]2 [E,B,E]2 | [B,,B,]6 [B,,B,]2 | [E,B,E]2 [E,B,E]2 [F,B,D]2 [A,B,D]2 | %6
 [G,B,E]6 [G,B,E]2 | [F,B,F]2 [F,EF]2 [F,DF]2 .[F,CF]2 | [B,,B,]6 [B,,A,]2 | z4 E2 z2 | %10
 [A,,A,]6 [A,,A,]2 | [B,,F,]4 [B,,B,]4 | [E,B,]6 [F,A,]2 | G,3 F, E,2 B,,2 | C,3 B,, E,2 A,,2 | %15
 B,,4 z2 A,2 |[M:3/4] E,6 |] %17
V:3
 x8 | x8 | x8 | x8 | x8 | x8 | x8 | z4 z2 =A2 | x8 | B4 z2 _D2 | x8 | x8 | x8 | %13
 B,3- [B,-DA] [B,EG]2 [A,DF]2 | x8 | [B,EG]4 B,2 z2 |[M:3/4] x6 |] %17
V:4
 x8 | x8 | x8 | x8 | x8 | x8 | x8 | x8 | x8 | [E,G,E]4 [E,B,]4 | x8 | x8 | x8 | x8 | x8 | z4 B,,4 | %16
[M:3/4] x6 |] %17

